; generated by PrusaSlicer 2.5.0+win64 on 2023-03-02 at 09:18:53 UTC

; 

; external perimeters extrusion width = 0.42mm
; perimeters extrusion width = 0.44mm
; infill extrusion width = 0.44mm
; solid infill extrusion width = 0.44mm
; top infill extrusion width = 0.40mm
; support material extrusion width = 0.36mm
; first layer extrusion width = 0.42mm

; external perimeters extrusion width = 0.42mm
; perimeters extrusion width = 0.44mm
; infill extrusion width = 0.44mm
; solid infill extrusion width = 0.44mm
; top infill extrusion width = 0.40mm
; support material extrusion width = 0.36mm
; first layer extrusion width = 0.42mm

M107
;TYPE:Custom
G90 ; use absolute coordinates
M83 ; extruder relative mode
M140 S60 ; set final bed temp
M104 S150 ; set temporary nozzle temp to prevent oozing during homing
G4 S10 ; allow partial nozzle warmup
G28 ; home all axis
G1 Z50 F240
G1 X2 Y10 F3000
M104 S215 ; set final nozzle temp
M190 S60 ; wait for bed temp to stabilize
M109 S215 ; wait for nozzle temp to stabilize
G1 Z0.28 F240
G92 E0
G1 Y140 E10 F1500 ; prime the nozzle
G1 X2.3 F5000
G92 E0
G1 Y10 E10 F1200 ; prime the nozzle
G92 E0
G21 ; set units to millimeters
G90 ; use absolute coordinates
M83 ; use relative distances for extrusion
; Filament gcode
M107
;LAYER_CHANGE
;Z:0.2
;HEIGHT:0.2
;BEFORE_LAYER_CHANGE
G92 E0
;0.2


G1 E-6 F3600
G1 Z.2 F9000
;AFTER_LAYER_CHANGE
;0.2
G1 X104.61 Y124.01
G1 E6 F2400
M204 S500
;TYPE:Skirt/Brim
;WIDTH:0.42
G1 F1200
G1 X105.122 Y123.589 E.02077
G1 X107.995 Y121.685 E.10809
G1 X109.102 Y121.17 E.03828
G1 X110.123 Y120.89 E.03319
G1 X113.177 Y120.293 E.09757
G1 X114.442 Y120.243 E.0397
G1 X140.829 Y122.041 E.82925
G1 X144.702 Y122.789 E.12369
G1 X146.316 Y123.468 E.0549
G1 X149.309 Y125.467 E.11285
G1 X150.204 Y126.292 E.03817
G1 X150.838 Y127.104 E.03229
G1 X152.399 Y129.419 E.08755
G1 X153.086 Y130.829 E.04919
G1 X153.373 Y131.877 E.03405
G1 X153.96 Y134.892 E.09633
G1 X154.002 Y136.335 E.04525
G1 X153.29 Y140.125 E.12093
G1 X153.099 Y140.749 E.02044
G1 X152.569 Y141.895 E.0396
G1 X150.657 Y144.772 E.1083
G1 X150.245 Y145.276 E.02041
G1 X149.309 Y146.144 E.04002
G1 X146.878 Y147.786 E.09199
G1 X145.81 Y148.405 E.03872
G1 X144.482 Y148.886 E.04427
G1 X141.08 Y149.542 E.10865
G1 X139.748 Y149.57 E.04176
G1 X113.258 Y147.753 E.83254
G1 X109.752 Y147.059 E.11205
G1 X109.014 Y146.824 E.02429
G1 X108.006 Y146.353 E.0349
G1 X105.222 Y144.511 E.10466
G1 X104.117 Y143.528 E.04636
G1 X103.564 Y142.83 E.02793
G1 X101.936 Y140.402 E.09167
G1 X101.473 Y139.563 E.03003
G1 X101.001 Y138.2 E.04524
G1 X100.321 Y134.547 E.11651
G1 X100.361 Y133.111 E.04503
G1 X101.043 Y129.666 E.11012
G1 X101.46 Y128.499 E.03884
G1 X101.91 Y127.652 E.0301
G1 X103.74 Y124.951 E.10228
G1 X104.569 Y124.054 E.0383
G1 E-4.2 F3600
;WIPE_START
G1 F7200
G1 X105.122 Y123.589 E-.34295
G1 X107.521 Y121.999 E-1.36705
;WIPE_END
G1 E-.09 F3600
G1 X114.44 Y123.62 F9000
G1 E6 F2400
;TYPE:Support material
G1 F1200
G1 X114.892 Y123.724 E.01454
G1 X115.088 Y123.805 E.00664
G1 X115.655 Y124.145 E.02073
G1 X116.405 Y124.294 E.02398
G1 X117.169 Y124.194 E.02415
G1 X117.535 Y124.222 E.0115
G1 X117.863 Y124.329 E.01084
G1 X118.355 Y124.534 E.0167
G1 X118.737 Y124.775 E.01418
G1 X119.003 Y125.063 E.01227
G1 X119.167 Y125.342 E.01018
G1 X119.82 Y125.856 E.02603
G1 X120.714 Y126.127 E.02928
G1 X120.907 Y126.227 E.00682
G1 X121.206 Y126.438 E.01148
G1 X121.658 Y126.89 E.02003
G1 X121.92 Y127.261 E.01422
G1 X122.053 Y127.625 E.01218
G1 X122.115 Y128.051 E.01349
G1 X122.694 Y128.897 E.03212
G1 X123.072 Y129.111 E.01365
G1 X123.44 Y129.516 E.01715
G1 X123.581 Y129.787 E.00958
G1 X123.808 Y130.333 E.01852
G1 X123.919 Y130.828 E.01591
G1 X123.809 Y131.728 E.02845
G1 X123.952 Y132.431 E.02249
G1 X124.381 Y133.176 E.02694
G1 X124.475 Y133.677 E.01601
G1 X124.477 Y134.274 E.0187
G1 X124.452 Y134.587 E.00985
G1 X124.27 Y135.088 E.01671
G1 X124.013 Y135.431 E.01345
G1 X123.795 Y136.29 E.0278
G1 X123.916 Y137.107 E.02589
G1 X123.821 Y137.666 E.01777
G1 X123.562 Y138.291 E.02122
G1 X123.322 Y138.669 E.01405
G1 X123.032 Y138.94 E.01244
G1 X122.717 Y139.121 E.0114
G1 X122.169 Y139.86 E.02884
G1 X121.993 Y140.616 E.02434
G1 X121.708 Y141.078 E.01703
G1 X121.206 Y141.593 E.02253
G1 X120.819 Y141.866 E.01487
G1 X119.804 Y142.192 E.03342
G1 X119.208 Y142.642 E.02341
G1 X118.841 Y143.19 E.02067
G1 X118.389 Y143.476 E.01678
G1 X117.663 Y143.784 E.02471
G1 X117.053 Y143.816 E.01915
G1 X116.275 Y143.789 E.02442
G1 X115.765 Y143.892 E.01631
G1 X114.875 Y144.305 E.03075
G1 X114.647 Y144.386 E.00758
G1 X114.343 Y144.411 E.00957
G1 X113.82 Y144.411 E.01639
G1 X113.532 Y144.387 E.00908
G1 X113.081 Y144.238 E.0149
G1 X112.677 Y143.95 E.01555
G1 X111.892 Y143.744 E.02544
G1 X110.901 Y143.849 E.03126
G1 X110.446 Y143.754 E.01458
G1 X109.809 Y143.497 E.02153
G1 X109.426 Y143.256 E.01418
G1 X109.161 Y142.968 E.01227
G1 X108.982 Y142.664 E.01107
G1 X108.298 Y142.141 E.02698
G1 X107.428 Y141.901 E.0283
G1 X107.095 Y141.701 E.01218
G1 X106.919 Y141.555 E.00717
G1 X106.505 Y141.14 E.01837
G1 X106.201 Y140.688 E.01708
G1 X105.958 Y139.798 E.02894
G1 X105.402 Y139.093 E.02814
G1 X105.13 Y138.944 E.00971
G1 X104.846 Y138.659 E.01263
G1 X104.741 Y138.521 E.00543
G1 X104.593 Y138.27 E.00914
G1 X104.362 Y137.715 E.01885
G1 X104.274 Y137.368 E.01121
G1 X104.26 Y136.939 E.01345
G1 X104.376 Y136.398 E.01735
G1 X104.176 Y135.472 E.0297
G1 X103.893 Y135.087 E.01501
G1 X103.745 Y134.68 E.01357
G1 X103.705 Y134.503 E.00568
G1 X103.687 Y134.276 E.00716
G1 X103.687 Y133.695 E.01822
G1 X103.772 Y133.211 E.0154
G1 X104.227 Y132.377 E.02978
G1 X104.355 Y131.685 E.02206
G1 X104.244 Y130.845 E.02657
G1 X104.345 Y130.377 E.01504
G1 X104.579 Y129.793 E.01973
G1 X104.712 Y129.537 E.00904
G1 X104.944 Y129.245 E.01168
G1 X105.554 Y128.797 E.02372
G1 X105.981 Y128.17 E.02379
G1 X106.232 Y127.277 E.02909
G1 X106.501 Y126.895 E.01465
G1 X106.998 Y126.398 E.02204
G1 X107.644 Y126.039 E.02318
G1 X107.996 Y126.004 E.0111
G1 X108.826 Y125.524 E.03006
G1 X109.13 Y125.096 E.01646
G1 X109.425 Y124.777 E.01362
G1 X109.801 Y124.539 E.01396
G1 X110.399 Y124.288 E.02032
G1 X110.86 Y124.185 E.01482
G1 X111.247 Y124.215 E.01218
G1 X111.688 Y124.294 E.01405
G1 X112.447 Y124.165 E.02414
G1 X113.21 Y123.736 E.02744
G1 X113.432 Y123.677 E.0072
G1 X113.761 Y123.62 E.01047
G1 X114.384 Y123.62 E.01952
G1 X124.137 Y134.957 F9000
G1 F1200
G1 X124.136 Y133.71 E.03912
G1 X124.058 Y133.295 E.01322
G1 X123.63 Y132.553 E.02686
G1 X123.466 Y131.742 E.02594
G1 X123.575 Y130.845 E.02833
G1 X123.483 Y130.435 E.01315
G1 X123.273 Y129.931 E.01714
G1 X123.159 Y129.712 E.00775
G1 X122.88 Y129.404 E.01301
G1 X122.88 Y138.617 E.28886
G1 X122.829 Y138.666 E.00221
G1 X122.487 Y138.862 E.01237
G1 X121.854 Y139.714 E.03327
G1 X121.675 Y140.485 E.02482
G1 X121.623 Y140.569 E.00308
G1 X121.623 Y127.439 E.41169
G1 X121.398 Y127.109 E.01252
G1 X120.987 Y126.699 E.0182
G1 X120.731 Y126.518 E.00984
G1 X120.585 Y126.443 E.00513
G1 X120.366 Y126.376 E.00717
G1 X120.366 Y141.655 E.47904
G1 X119.645 Y141.887 E.02375
G1 X119.11 Y142.291 E.02104
G1 X119.11 Y125.729 E.5193
G1 X118.908 Y125.57 E.00806
G1 X118.729 Y125.266 E.01105
G1 X118.518 Y125.038 E.00973
G1 X118.198 Y124.836 E.01187
G1 X117.853 Y124.692 E.01173
G1 X117.853 Y143.338 E.58463
G1 X117.587 Y143.449 E.00901
G1 X117.05 Y143.477 E.01686
G1 X116.596 Y143.461 E.01426
G1 X116.596 Y124.609 E.59108
G1 X116.396 Y124.639 E.00632
G1 X115.531 Y124.466 E.02766
G1 X115.339 Y124.351 E.00703
G1 X115.339 Y143.716 E.60717
G1 X114.747 Y143.99 E.02046
G1 X114.575 Y144.051 E.0057
G1 X114.082 Y144.071 E.01549
G1 X114.082 Y123.959 E.6306
G1 X113.79 Y123.959 E.00914
G1 X113.339 Y124.053 E.01447
G1 X112.825 Y124.342 E.01848
G1 X112.825 Y143.639 E.60502
G1 X111.918 Y143.4 E.0294
G1 X111.568 Y143.437 E.01104
G1 X111.568 Y124.617 E.59008
G1 X111.204 Y124.552 E.01159
G1 X110.884 Y124.528 E.01006
G1 X110.502 Y124.613 E.0123
G1 X110.311 Y124.693 E.00647
G1 X110.311 Y143.338 E.58462
G1 X109.966 Y143.195 E.01173
G1 X109.645 Y142.993 E.01187
G1 X109.435 Y142.764 E.00973
G1 X109.24 Y142.434 E.01201
G1 X109.054 Y142.292 E.00736
G1 X109.054 Y125.784 E.51761
G1 X108.103 Y126.335 E.03448
G1 X107.797 Y126.365 E.00962
G1 X107.797 Y141.651 E.47928
G1 X107.561 Y141.586 E.00767
G1 X107.295 Y141.426 E.00974
G1 X107.149 Y141.304 E.00598
G1 X106.766 Y140.921 E.01698
G1 X106.54 Y140.589 E.01258
G1 X106.54 Y127.43 E.41262
G1 X106.294 Y128.313 E.02876
G1 X105.802 Y129.037 E.02744
G1 X105.283 Y129.417 E.02015
G1 X105.283 Y138.617 E.28847
G1 X105.102 Y138.435 E.00805
G1 X104.897 Y138.118 E.01184
G1 X104.685 Y137.607 E.01734
G1 X104.612 Y137.32 E.00929
G1 X104.601 Y136.97 E.011
G1 X104.723 Y136.398 E.01833
G1 X104.493 Y135.33 E.03426
G1 X104.195 Y134.925 E.01575
G1 X104.041 Y134.452 E.0156
G1 X104.026 Y134.264 E.00589
G1 X104.026 Y133.098 E.03656
G1 E-4.2 F3600
;WIPE_START
G1 F7200
G1 X104.026 Y134.264 E-.55387
G1 X104.041 Y134.452 E-.08929
G1 X104.195 Y134.925 E-.23634
G1 X104.493 Y135.33 E-.23867
G1 X104.723 Y136.398 E-.51902
G1 X104.691 Y136.548 E-.07282
;WIPE_END
G1 E-.09 F3600
G1 X140.599 Y125.41 F9000
G1 E6 F2400
G1 F1200
G1 X141.051 Y125.514 E.01454
G1 X141.246 Y125.595 E.00664
G1 X141.813 Y125.935 E.02073
G1 X142.563 Y126.084 E.02398
G1 X143.327 Y125.984 E.02415
G1 X143.693 Y126.012 E.0115
G1 X144.021 Y126.119 E.01084
G1 X144.513 Y126.324 E.0167
G1 X144.896 Y126.565 E.01418
G1 X145.104 Y126.791 E.00964
G1 X145.393 Y127.2 E.01571
G1 X146.006 Y127.654 E.02392
G1 X146.872 Y127.917 E.02837
G1 X147.065 Y128.017 E.00682
G1 X147.365 Y128.228 E.01148
G1 X147.817 Y128.68 E.02003
G1 X148.078 Y129.051 E.01422
G1 X148.211 Y129.415 E.01218
G1 X148.269 Y129.81 E.01251
G1 X148.772 Y130.605 E.0295
G1 X149.298 Y130.975 E.02017
G1 X149.599 Y131.307 E.01403
G1 X149.762 Y131.629 E.01134
G1 X149.966 Y132.122 E.01674
G1 X150.078 Y132.618 E.01591
G1 X149.969 Y133.508 E.02814
G1 X150.106 Y134.202 E.02216
G1 X150.548 Y134.985 E.02821
G1 X150.634 Y135.476 E.01562
G1 X150.635 Y136.064 E.01843
G1 X150.615 Y136.315 E.00791
G1 X150.568 Y136.492 E.00573
G1 X150.423 Y136.894 E.01341
G1 X150.177 Y137.211 E.01257
G1 X149.949 Y138.1 E.02879
G1 X150.063 Y138.808 E.02247
G1 X150.051 Y139.032 E.00704
G1 X149.98 Y139.456 E.01347
G1 X149.721 Y140.081 E.02121
G1 X149.49 Y140.443 E.01346
G1 X149.201 Y140.724 E.01264
G1 X148.875 Y140.911 E.01178
G1 X148.327 Y141.65 E.02884
G1 X148.151 Y142.406 E.02434
G1 X147.85 Y142.895 E.018
G1 X147.365 Y143.383 E.02158
G1 X146.977 Y143.656 E.01487
G1 X145.962 Y143.982 E.03342
G1 X145.366 Y144.432 E.02342
G1 X144.999 Y144.98 E.02067
G1 X144.514 Y145.287 E.01801
G1 X143.822 Y145.574 E.0235
G1 X143.212 Y145.606 E.01915
G1 X142.433 Y145.579 E.02442
G1 X141.924 Y145.682 E.01631
G1 X141.034 Y146.095 E.03075
G1 X140.806 Y146.176 E.00759
G1 X140.502 Y146.201 E.00957
G1 X139.979 Y146.201 E.01639
G1 X139.69 Y146.177 E.00908
G1 X139.239 Y146.028 E.0149
G1 X138.835 Y145.74 E.01555
G1 X138.05 Y145.534 E.02544
G1 X137.059 Y145.639 E.03126
G1 X136.573 Y145.537 E.01556
G1 X135.967 Y145.287 E.02057
G1 X135.585 Y145.046 E.01418
G1 X135.319 Y144.758 E.01227
G1 X135.14 Y144.454 E.01107
G1 X134.457 Y143.931 E.02698
G1 X133.586 Y143.691 E.0283
G1 X133.253 Y143.491 E.01218
G1 X133.078 Y143.345 E.00717
G1 X132.663 Y142.93 E.01837
G1 X132.36 Y142.478 E.01709
G1 X132.116 Y141.588 E.02894
G1 X131.56 Y140.883 E.02814
G1 X131.289 Y140.734 E.00971
G1 X131.004 Y140.449 E.01263
G1 X130.899 Y140.311 E.00543
G1 X130.751 Y140.06 E.00914
G1 X130.521 Y139.505 E.01885
G1 X130.433 Y139.158 E.01121
G1 X130.417 Y138.675 E.01516
G1 X130.527 Y138.31 E.01194
G1 X130.349 Y137.282 E.03271
G1 X130.051 Y136.877 E.0158
G1 X129.875 Y136.39 E.01622
G1 X129.845 Y136.078 E.00982
G1 X129.845 Y135.485 E.01861
G1 X129.933 Y134.985 E.0159
G1 X130.379 Y134.192 E.02854
G1 X130.515 Y133.487 E.02252
G1 X130.413 Y132.717 E.02435
G1 X130.434 Y132.478 E.00753
G1 X130.514 Y132.123 E.01143
G1 X130.738 Y131.583 E.01833
G1 X130.871 Y131.327 E.00904
G1 X131.102 Y131.035 E.01168
G1 X131.712 Y130.587 E.02372
G1 X132.14 Y129.96 E.02379
G1 X132.391 Y129.067 E.02909
G1 X132.66 Y128.685 E.01465
G1 X133.156 Y128.188 E.02204
G1 X133.802 Y127.829 E.02318
G1 X134.155 Y127.794 E.0111
G1 X134.984 Y127.314 E.03006
G1 X135.289 Y126.886 E.01646
G1 X135.542 Y126.611 E.01173
G1 X135.966 Y126.324 E.01606
G1 X136.557 Y126.078 E.02005
G1 X137.035 Y125.972 E.01536
G1 X137.416 Y126.007 E.01198
G1 X137.846 Y126.084 E.01372
G1 X138.606 Y125.955 E.02414
G1 X139.368 Y125.526 E.02744
G1 X139.59 Y125.467 E.0072
G1 X139.919 Y125.41 E.01047
G1 X140.542 Y125.41 E.01952
G1 X150.296 Y136.747 F9000
G1 F1200
G1 X150.294 Y135.506 E.03892
G1 X150.223 Y135.101 E.01288
G1 X149.784 Y134.321 E.02809
G1 X149.626 Y133.521 E.02556
G1 X149.734 Y132.635 E.028
G1 X149.642 Y132.225 E.01315
G1 X149.451 Y131.764 E.01565
G1 X149.318 Y131.502 E.00922
G1 X149.039 Y131.203 E.01282
G1 X149.039 Y140.409 E.28863
G1 X148.995 Y140.451 E.00191
G1 X148.645 Y140.652 E.01265
G1 X148.012 Y141.504 E.03327
G1 X147.833 Y142.275 E.02482
G1 X147.782 Y142.359 E.00308
G1 X147.782 Y129.229 E.41169
G1 X147.556 Y128.899 E.01252
G1 X147.145 Y128.489 E.0182
G1 X146.889 Y128.308 E.00984
G1 X146.744 Y128.233 E.00513
G1 X146.525 Y128.166 E.00717
G1 X146.525 Y143.445 E.47904
G1 X145.804 Y143.677 E.02375
G1 X145.268 Y144.081 E.02104
G1 X145.268 Y127.53 E.51894
G1 X145.144 Y127.438 E.00483
G1 X144.928 Y127.118 E.01212
G1 X144.677 Y126.828 E.01204
G1 X144.356 Y126.626 E.01187
G1 X144.011 Y126.482 E.01173
G1 X144.011 Y145.128 E.58463
G1 X143.746 Y145.239 E.00901
G1 X143.209 Y145.267 E.01686
G1 X142.754 Y145.251 E.01426
G1 X142.754 Y126.399 E.59108
G1 X142.555 Y126.429 E.00632
G1 X141.689 Y126.256 E.02766
G1 X141.497 Y126.141 E.00703
G1 X141.497 Y145.506 E.60717
G1 X140.905 Y145.78 E.02046
G1 X140.734 Y145.841 E.0057
G1 X140.24 Y145.861 E.01549
G1 X140.24 Y125.749 E.6306
G1 X139.949 Y125.749 E.00914
G1 X139.497 Y125.843 E.01447
G1 X138.983 Y126.132 E.01848
G1 X138.983 Y145.429 E.60502
G1 X138.076 Y145.19 E.0294
G1 X137.726 Y145.227 E.01104
G1 X137.726 Y126.407 E.59008
G1 X137.37 Y126.344 E.01135
G1 X137.057 Y126.314 E.00986
G1 X136.66 Y126.403 E.01276
G1 X136.469 Y126.482 E.00647
G1 X136.469 Y145.127 E.5846
G1 X136.124 Y144.985 E.01172
G1 X135.804 Y144.783 E.01187
G1 X135.593 Y144.554 E.00973
G1 X135.399 Y144.224 E.01201
G1 X135.212 Y144.082 E.00736
G1 X135.212 Y127.574 E.51761
G1 X134.261 Y128.125 E.03448
G1 X133.956 Y128.155 E.00962
G1 X133.956 Y143.441 E.47928
G1 X133.72 Y143.376 E.00767
G1 X133.453 Y143.216 E.00973
G1 X133.307 Y143.094 E.00598
G1 X132.924 Y142.711 E.01698
G1 X132.699 Y142.379 E.01258
G1 X132.699 Y129.22 E.41262
G1 X132.453 Y130.103 E.02877
G1 X131.96 Y130.827 E.02744
G1 X131.442 Y131.207 E.02015
G1 X131.442 Y140.407 E.28847
G1 X131.26 Y140.225 E.00805
G1 X131.055 Y139.908 E.01183
G1 X130.844 Y139.397 E.01734
G1 X130.771 Y139.11 E.00929
G1 X130.758 Y138.72 E.01225
G1 X130.875 Y138.332 E.0127
G1 X130.67 Y137.146 E.03773
G1 X130.353 Y136.715 E.01677
G1 X130.209 Y136.315 E.01332
G1 X130.185 Y136.062 E.00797
G1 X130.185 Y134.884 E.03695
M106 S255
;LAYER_CHANGE
;Z:0.6
;HEIGHT:0.4
;BEFORE_LAYER_CHANGE
G92 E0
;0.6


G1 E-4.2 F3600
;WIPE_START
G1 F7200
G1 X130.185 Y136.062 E-.55981
G1 X130.209 Y136.315 E-.12078
G1 X130.353 Y136.715 E-.20186
G1 X130.67 Y137.146 E-.25404
G1 X130.875 Y138.332 E-.57162
G1 X130.874 Y138.336 E-.0019
;WIPE_END
G1 E-.09 F3600
G1 Z.6 F9000
;AFTER_LAYER_CHANGE
;0.6
M104 S210 ; set temperature
G1 X130.148 Y148.912
G1 E6 F2400
;TYPE:Skirt/Brim
G1 F6000
G1 X113.258 Y147.753 E.94082
G1 X109.752 Y147.059 E.19859
G1 X109.014 Y146.824 E.04305
G1 X108.006 Y146.353 E.06185
G1 X105.222 Y144.511 E.18549
G1 X104.117 Y143.528 E.08217
G1 X103.564 Y142.83 E.0495
G1 X101.936 Y140.402 E.16247
G1 X101.473 Y139.563 E.05322
G1 X101.001 Y138.2 E.08018
G1 X100.321 Y134.547 E.20649
G1 X100.361 Y133.111 E.07981
G1 X101.043 Y129.666 E.19517
G1 X101.46 Y128.499 E.06883
G1 X101.91 Y127.652 E.05335
G1 X103.74 Y124.951 E.18128
G1 X104.61 Y124.01 E.07122
G1 X105.122 Y123.589 E.03682
G1 X107.995 Y121.685 E.19157
G1 X109.102 Y121.17 E.06785
G1 X110.123 Y120.89 E.05883
