; generated by PrusaSlicer 2.5.0+win64 on 2023-03-17 at 12:55:09 UTC

; 

; external perimeters extrusion width = 0.42mm
; perimeters extrusion width = 0.44mm
; infill extrusion width = 0.44mm
; solid infill extrusion width = 0.44mm
; top infill extrusion width = 0.40mm
; support material extrusion width = 0.36mm
; first layer extrusion width = 0.42mm

M107
;TYPE:Custom
G90 ; use absolute coordinates
M83 ; extruder relative mode
M140 S60 ; set final bed temp
M104 S150 ; set temporary nozzle temp to prevent oozing during homing
G4 S10 ; allow partial nozzle warmup
G28 ; home all axis
G1 Z50 F240
G1 X2 Y10 F3000
M104 S215 ; set final nozzle temp
M190 S60 ; wait for bed temp to stabilize
M109 S215 ; wait for nozzle temp to stabilize
G1 Z0.28 F240
G92 E0
G1 Y140 E10 F1500 ; prime the nozzle
G1 X2.3 F5000
G92 E0
G1 Y10 E10 F1200 ; prime the nozzle
G92 E0
G21 ; set units to millimeters
G90 ; use absolute coordinates
M83 ; use relative distances for extrusion
; Filament gcode
M107
;LAYER_CHANGE
;Z:0.2
;HEIGHT:0.2
;BEFORE_LAYER_CHANGE
G92 E0
;0.2


G1 E-6 F3600
G1 Z.2 F9000
;AFTER_LAYER_CHANGE
;0.2
G1 X131.549 Y152.326
G1 E6 F2400
M204 S500
;TYPE:Skirt/Brim
;WIDTH:0.42
G1 F1200
G1 X135.049 Y149.703 E.13715
G1 X136.725 Y148.997 E.057
G1 X152.688 Y146.563 E.5063
G1 X163.311 Y146.563 E.33306
G1 X165.196 Y147.071 E.06124
G1 X165.979 Y147.526 E.02839
G1 X167.466 Y149.123 E.06841
G1 X172.292 Y158.992 E.34447
G1 X172.674 Y160.641 E.05308
G1 X172.674 Y167.549 E.21658
G1 X171.943 Y169.774 E.07344
G1 X168.99 Y173.788 E.15624
G1 X167.136 Y175.129 E.07176
G1 X163.086 Y176.457 E.13363
G1 X162.239 Y176.63 E.0271
G1 X143.401 Y178.256 E.59287
G1 X135.128 Y178.27 E.25937
G1 X133.453 Y177.875 E.05397
G1 X132.13 Y176.774 E.05397
G1 X131.567 Y175.703 E.03794
G1 X130.239 Y171.72 E.13165
G1 X130.046 Y170.532 E.03771
G1 X130.046 Y155.33 E.47666
G1 X130.441 Y153.655 E.05397
G1 X131.511 Y152.372 E.05236
G1 X131.775 Y152.628 F9000
G1 F1200
G1 X135.276 Y150.005 E.13715
G1 X136.783 Y149.37 E.05127
G1 X152.688 Y146.94 E.50449
G1 X163.311 Y146.94 E.33306
G1 X165.007 Y147.397 E.05509
G1 X165.79 Y147.852 E.02839
G1 X167.127 Y149.288 E.06153
G1 X171.954 Y159.158 E.34447
G1 X172.297 Y160.641 E.04775
G1 X172.297 Y167.549 E.21658
G1 X171.64 Y169.551 E.06606
G1 X168.686 Y173.564 E.15624
G1 X167.018 Y174.771 E.06455
G1 X162.969 Y176.099 E.13363
G1 X162.207 Y176.255 E.02438
G1 X143.368 Y177.88 E.59287
G1 X135.128 Y177.893 E.25835
G1 X133.545 Y177.499 E.05115
G1 X132.332 Y176.409 E.05115
G1 X131.925 Y175.584 E.02884
G1 X130.597 Y171.6 E.13165
G1 X130.423 Y170.532 E.03392
G1 X130.423 Y155.33 E.47666
G1 X130.818 Y153.747 E.05115
G1 X131.736 Y152.673 E.04431
G1 E-4.2 F3600
;WIPE_START
G1 F7200
G1 X134.611 Y150.506 E-1.71
;WIPE_END
G1 E-.09 F3600
G1 X144.863 Y151.645 F9000
G1 E6 F2400
;TYPE:Support material interface
;WIDTH:0.36
G1 F1200
G1 X144.721 Y151.645 E.00373
G1 X144.721 Y151.772 E.00336
G1 X145.027 Y151.75 E.00807
G1 X145.027 Y151.645 E.00278
G1 X145.554 Y151.645 E.01392
G1 X145.554 Y151.712 E.00177
G1 X146.082 Y151.674 E.01395
G1 X146.082 Y151.645 E.00077
G1 X146.61 Y151.645 E.01392
G1 X146.61 Y151.694 E.0013
G1 X147.138 Y151.645 E.01398
G1 E-4.2 F3600
;WIPE_START
G1 F7200
G1 X146.61 Y151.694 E-.2518
G1 X146.61 Y151.645 E-.02343
G1 X146.082 Y151.645 E-.25071
G1 X146.082 Y151.674 E-.01379
G1 X145.554 Y151.712 E-.25136
G1 X145.554 Y151.645 E-.0319
G1 X145.027 Y151.645 E-.25071
G1 X145.027 Y151.75 E-.05
G1 X144.721 Y151.772 E-.14543
G1 X144.721 Y151.645 E-.06048
G1 X144.863 Y151.645 E-.06719
;WIPE_END
G1 E-.4032 F3600
G1 X150.669 Y151.665 F9000
G1 E6 F2400
G1 F1200
G1 X150.454 Y151.645 E.00569
G1 X150.832 Y151.645 E.00997
G1 X150.832 Y151.679 E.00091
G1 X151.36 Y151.728 E.01397
G1 X151.36 Y151.645 E.00218
G1 X151.72 Y151.645 E.00949
G1 X151.522 Y151.719 E.00558
G1 X152.781 Y151.256 F9000
G1 F1200
G1 X152.688 Y151.285 E.00258
G1 X152.688 Y150.317 E.02552
G1 X152.944 Y150.317 E.00674
G1 X152.944 Y151.237 E.02425
G1 X153.472 Y151.199 E.01395
G1 X153.472 Y150.317 E.02324
G1 X153.999 Y150.317 E.01392
G1 X153.999 Y151.161 E.02224
G1 X154.527 Y151.122 E.01395
G1 X154.527 Y150.317 E.02123
G1 X155.055 Y150.317 E.01392
G1 X155.055 Y151.084 E.02023
G1 X155.583 Y151.046 E.01395
G1 X155.583 Y150.317 E.01922
G1 X156.111 Y150.317 E.01392
G1 X156.111 Y151.008 E.01822
G1 X156.638 Y150.97 E.01395
G1 X156.638 Y150.317 E.01721
G1 X157.166 Y150.317 E.01392
G1 X157.166 Y150.932 E.01621
G1 X157.694 Y150.894 E.01395
G1 X157.694 Y150.317 E.0152
G1 X158.222 Y150.317 E.01392
G1 X158.222 Y150.856 E.0142
G1 X158.75 Y150.818 E.01395
G1 X158.75 Y150.317 E.01319
G1 X159.277 Y150.317 E.01392
G1 X159.277 Y150.779 E.01219
G1 X159.805 Y150.741 E.01395
G1 X159.805 Y150.317 E.01118
G1 X160.333 Y150.317 E.01392
G1 X160.333 Y150.703 E.01018
G1 X160.861 Y150.665 E.01395
G1 X160.861 Y150.317 E.00917
G1 X161.389 Y150.317 E.01392
G1 X161.389 Y150.627 E.00817
G1 X161.916 Y150.589 E.01395
G1 X161.916 Y150.317 E.00716
G1 X162.444 Y150.317 E.01392
G1 X162.444 Y150.492 E.00462
G1 X162.972 Y150.454 E.01395
G1 X162.972 Y150.317 E.00361
G1 X163.311 Y150.317 E.00893
G1 X163.311 Y150.43 E.00297
G1 X163.136 Y150.442 E.00463
G1 E-4.2 F3600
;WIPE_START
G1 F7200
G1 X163.311 Y150.43 E-.08336
G1 X163.311 Y150.317 E-.05348
G1 X162.972 Y150.317 E-.1608
G1 X162.972 Y150.454 E-.06509
G1 X162.444 Y150.492 E-.25136
G1 X162.444 Y150.317 E-.0832
G1 X161.916 Y150.317 E-.25071
G1 X161.916 Y150.589 E-.12905
G1 X161.389 Y150.627 E-.25136
G1 X161.389 Y150.317 E-.14715
G1 X160.895 Y150.317 E-.23444
;WIPE_END
G1 E-.09 F3600
G1 X165.611 Y164.923 F9000
G1 E6 F2400
G1 F1200
G1 X165.659 Y165.563 E.01693
G1 X165.617 Y165.585 E.00124
G1 X165.966 Y170.075 E.11873
G1 X165.966 Y164.923 E.13583
G1 X165.775 Y164.923 E.00504
G1 E-4.2 F3600
;WIPE_START
G1 F7200
G1 X165.966 Y164.923 E-.09081
G1 X165.966 Y168.332 E-1.61918
;WIPE_END
G1 E-.09 F3600
G1 X168.92 Y167.549 F9000
G1 E6 F2400
;TYPE:Support material
;WIDTH:0.42
G1 F1200
G1 X166.34 Y167.549 E.08089
G1 X166.34 Y164.549 E.09406
G1 X165.205 Y164.549 E.03559
G1 X165.267 Y165.347 E.02509
G1 X165.225 Y165.369 E.00148
G1 X165.395 Y167.549 E.06856
G1 X162.851 Y167.549 E.07977
G1 X162.314 Y160.641 E.21724
G1 X168.92 Y160.641 E.20713
G1 X168.92 Y167.492 E.21481
G1 X168.538 Y167.379 F9000
G1 F1200
G1 X168.538 Y160.981 E.20062
G1 X168.119 Y160.981 E.01314
G1 X168.119 Y167.21 E.1953
G1 X167.7 Y167.21 E.01314
G1 X167.7 Y160.981 E.1953
G1 X167.281 Y160.981 E.01314
G1 X167.281 Y167.21 E.1953
G1 X166.862 Y167.21 E.01314
G1 X166.862 Y160.981 E.1953
G1 X166.443 Y160.981 E.01314
G1 X166.443 Y164.21 E.10124
G1 X166.024 Y164.21 E.01314
G1 X166.024 Y160.981 E.10124
G1 X165.606 Y160.981 E.01314
G1 X165.606 Y164.21 E.10124
G1 X165.187 Y164.21 E.01314
G1 X165.187 Y160.981 E.10124
G1 X164.768 Y160.981 E.01314
G1 X164.768 Y167.21 E.1953
G1 X164.349 Y167.21 E.01314
G1 X164.349 Y160.981 E.1953
G1 X163.93 Y160.981 E.01314
G1 X163.93 Y167.21 E.1953
G1 X163.511 Y167.21 E.01314
G1 X163.511 Y160.981 E.1953
G1 X163.092 Y160.981 E.01314
G1 X163.092 Y167.379 E.20062
G1 E-4.2 F3600
;WIPE_START
G1 F7200
G1 X163.092 Y163.779 E-1.71
;WIPE_END
G1 E-.09 F3600
G1 X165.611 Y170.495 F9000
G1 E6 F2400
;TYPE:Support material interface
;WIDTH:0.36
G1 F1200
G1 X165.614 Y170.691 E.00515
G1 X165.966 Y170.663 E.0093
G1 X165.966 Y170.468 E.00516
G1 X165.775 Y170.483 E.00507
G1 X165.966 Y171.34 F9000
G1 F1200
G1 X165.966 Y171.562 E.00587
G1 X165.775 Y171.562 E.00505
G1 X165.934 Y171.377 E.00645
G1 E-4.2 F3600
;WIPE_START
G1 F7200
G1 X165.775 Y171.562 E-.11613
G1 X165.966 Y171.562 E-.09099
G1 X165.966 Y171.34 E-.10573
;WIPE_END
G1 E-1.48715 F3600
G1 X161.916 Y171.879 F9000
G1 E6 F2400
G1 F1200
G1 X161.916 Y172.89 E.02665
G1 X161.389 Y172.89 E.01392
G1 X161.389 Y171.917 E.02564
G1 X160.861 Y171.955 E.01395
G1 X160.861 Y172.89 E.02464
G1 X160.333 Y172.89 E.01392
G1 X160.333 Y171.994 E.02363
G1 X160.269 Y171.998 E.00168
G1 X160.044 Y171.921 E.00628
G1 X159.913 Y171.995 E.00397
G1 X159.805 Y172.028 E.00297
G1 X159.805 Y172.89 E.02273
G1 X159.277 Y172.89 E.01392
G1 X159.277 Y172.07 E.02162
G1 X158.75 Y172.108 E.01395
G1 X158.75 Y172.89 E.02062
G1 X158.222 Y172.89 E.01392
G1 X158.222 Y172.146 E.01961
G1 X157.694 Y172.184 E.01395
G1 X157.694 Y172.89 E.01861
G1 X157.166 Y172.89 E.01392
G1 X157.166 Y172.222 E.0176
G1 X156.638 Y172.26 E.01395
G1 X156.638 Y172.89 E.0166
G1 X156.111 Y172.89 E.01392
G1 X156.111 Y172.298 E.01559
G1 X155.583 Y172.337 E.01395
G1 X155.583 Y172.89 E.01459
G1 X155.055 Y172.89 E.01392
G1 X155.055 Y172.375 E.01358
G1 X154.691 Y172.401 E.00963
G1 X154.392 Y172.125 F9000
G1 F1200
G1 X154.414 Y172.421 E.00782
G1 X154.527 Y172.413 E.003
G1 X154.527 Y172.89 E.01258
G1 X153.999 Y172.89 E.01392
G1 X153.999 Y172.378 E.0135
G1 X153.824 Y172.448 E.00499
G1 X153.472 Y172.473 E.00931
G1 X153.472 Y172.89 E.01098
G1 X152.944 Y172.89 E.01392
G1 X152.944 Y172.512 E.00998
G1 X152.416 Y172.55 E.01395
G1 X152.416 Y172.89 E.00897
G1 X151.888 Y172.89 E.01392
G1 X151.888 Y172.588 E.00797
G1 X151.36 Y172.626 E.01395
G1 X151.36 Y172.89 E.00696
G1 X150.832 Y172.89 E.01392
G1 X150.832 Y172.664 E.00596
G1 X150.305 Y172.702 E.01395
G1 X150.305 Y172.89 E.00495
G1 X149.777 Y172.89 E.01392
G1 X149.777 Y172.74 E.00395
G1 X149.249 Y172.778 E.01395
G1 X149.249 Y172.89 E.00294
G1 X148.721 Y172.89 E.01392
G1 X148.721 Y172.817 E.00194
G1 X148.44 Y172.837 E.00743
G1 X148.422 Y172.59 E.00654
G1 X148.193 Y172.737 E.00718
G1 X148.193 Y172.89 E.00404
G1 X147.928 Y172.89 E.007
G1 X148.056 Y172.825 E.00377
G1 E-4.2 F3600
;WIPE_START
G1 F7200
G1 X147.928 Y172.89 E-.06794
G1 X148.193 Y172.89 E-.12613
G1 X148.193 Y172.737 E-.07275
G1 X148.422 Y172.59 E-.12931
G1 X148.44 Y172.837 E-.11776
G1 X148.721 Y172.817 E-.13381
G1 X148.721 Y172.89 E-.03487
G1 X149.249 Y172.89 E-.25071
G1 X149.249 Y172.778 E-.05298
G1 X149.777 Y172.74 E-.25136
G1 X149.777 Y172.89 E-.07108
G1 X150.305 Y172.89 E-.25071
G1 X150.305 Y172.702 E-.08919
G1 X150.434 Y172.693 E-.0614
;WIPE_END
G1 E-.09 F3600
G1 X139.213 Y172.014 F9000
G1 E6 F2400
;TYPE:Support material
;WIDTH:0.42
G1 F1200
G1 X139.703 Y173.274 E.04241
G1 X139.84 Y173.41 E.00606
G1 X140.014 Y173.478 E.00585
G1 X140.116 Y173.493 E.00322
G1 X141.919 Y173.363 E.05669
G1 X143.078 Y174.516 E.05125
G1 X135.128 Y174.516 E.24925
G1 X135.128 Y170.532 E.1249
G1 X133.801 Y170.532 E.04163
G1 X133.801 Y155.33 E.47666
G1 X136.733 Y155.33 E.09193
G1 X139.205 Y171.958 E.52707
G1 E-4.2 F3600
;WIPE_START
G1 F7200
G1 X138.675 Y168.397 E-1.71
;WIPE_END
G1 E-.09 F3600
G1 X142.143 Y174.346 F9000
G1 E6 F2400
G1 F1200
G1 X142.143 Y174.064 E.00884
G1 X141.789 Y173.713 E.01563
G1 X141.724 Y173.717 E.00206
G1 X141.724 Y174.177 E.0144
G1 X141.305 Y174.177 E.01314
G1 X141.305 Y173.748 E.01345
G1 X140.886 Y173.778 E.01317
G1 X140.886 Y174.177 E.0125
G1 X140.467 Y174.177 E.01314
G1 X140.467 Y173.808 E.01155
G1 X140.048 Y173.826 E.01315
G1 X140.048 Y174.177 E.01099
G1 X139.629 Y174.177 E.01314
G1 X139.629 Y173.679 E.01561
G1 X139.414 Y173.464 E.00952
G1 X139.21 Y172.947 E.01743
G1 X139.21 Y174.177 E.03854
G1 X138.791 Y174.177 E.01314
G1 X138.791 Y171.482 E.08448
G1 X138.372 Y168.664 E.08932
G1 X138.372 Y174.177 E.17284
G1 X137.953 Y174.177 E.01314
G1 X137.953 Y165.846 E.26119
G1 X137.534 Y163.028 E.08932
G1 X137.534 Y174.177 E.34954
G1 X137.115 Y174.177 E.01314
G1 X137.115 Y160.211 E.43789
G1 X136.696 Y157.393 E.08932
G1 X136.696 Y174.177 E.52624
G1 X136.277 Y174.177 E.01314
G1 X136.277 Y155.67 E.58027
G1 X135.858 Y155.67 E.01314
G1 X135.858 Y174.177 E.58027
G1 X135.468 Y174.177 E.01224
G1 X135.468 Y170.193 E.1249
G1 X135.439 Y170.193 E.0009
G1 X135.439 Y155.67 E.45538
G1 X135.02 Y155.67 E.01314
G1 X135.02 Y170.193 E.45538
G1 X134.601 Y170.193 E.01314
G1 X134.601 Y155.67 E.45538
G1 X134.182 Y155.67 E.01314
G1 X134.182 Y170.363 E.4607
G1 E-4.2 F3600
;WIPE_START
G1 F7200
G1 X134.182 Y166.763 E-1.71
;WIPE_END
G1 E-.09 F3600
G1 X141.475 Y167.422 F9000
G1 E6 F2400
;TYPE:Perimeter
;WIDTH:0.419999
G1 F1200
G1 X141.541 Y167.483 E.00283
G1 X141.901 Y167.591 E.01179
G1 X142.828 Y167.676 E.02919
G1 X143.243 Y167.621 E.0131
G1 X152.63 Y164.129 E.31403
G1 X141.578 Y171.235 E.41197
G1 X141.214 Y171.674 E.01787
G1 X141.161 Y171.888 E.00691
G1 X140.807 Y171.913 E.0111
G1 X140.701 Y171.643 E.00912
G1 X138.159 Y154.55 E.54183
G1 X138.193 Y153.709 E.02636
G1 X142.913 Y153.369 E.14837
G1 X141.038 Y165.462 E.38372
G1 X141.027 Y165.622 E.00503
G1 X141.054 Y166.791 E.03666
G1 X141.197 Y167.167 E.01261
G1 X141.43 Y167.382 E.00994
G1 X141.686 Y167.121 F9000
G1 F1200
G1 X141.719 Y167.151 E.00141
G1 X141.935 Y167.216 E.00707
G1 X142.863 Y167.301 E.02919
G1 X143.111 Y167.267 E.00786
G1 X155.769 Y162.56 E.42343
G1 X141.782 Y171.552 E.52138
G1 X141.563 Y171.816 E.01072
G1 X141.503 Y172.241 E.01347
G1 X140.558 Y172.309 E.02969
G1 X140.334 Y171.741 E.01916
G1 X137.761 Y154.432 E.54868
G1 X137.821 Y154.043 E.01233
G1 X137.789 Y153.815 E.00722
G1 X137.877 Y153.354 E.01471
G1 X143.358 Y152.958 E.1723
G1 X141.41 Y165.52 E.39857
G1 X141.427 Y166.736 E.03812
G1 X141.513 Y166.961 E.00756
G1 X141.642 Y167.08 E.00549
G1 X141.898 Y166.819 F9000
;TYPE:External perimeter
G1 F1200
G1 X142.123 Y166.854 E.00715
G1 X142.98 Y166.914 E.02693
;WIDTH:0.462095
G1 X149.721 Y164.429 E.25041
;WIDTH:0.504191
G1 X156.462 Y161.945 E.27556
;WIDTH:0.511141
G1 X156.952 Y161.728 E.02085
;WIDTH:0.47306
G1 X157.407 Y161.522 E.01788
;WIDTH:0.434979
G1 X158.299 Y161.098 E.03218
;WIDTH:0.395209
G1 X159.831 Y160.528 E.04788
G1 X158.461 Y161.409 E.04771
;WIDTH:0.396525
G1 X158.435 Y161.425 E.00088
;WIDTH:0.437162
G1 X157.555 Y161.886 E.03258
;WIDTH:0.470677
G1 X157.116 Y162.13 E.01787
;WIDTH:0.504191
G1 X156.677 Y162.374 E.01927
G1 X150.645 Y166.277 E.27556
;WIDTH:0.462095
G1 X144.613 Y170.18 E.25041
;WIDTH:0.419999
G1 X141.985 Y171.87 E.09795
G1 X141.899 Y172.013 E.00524
G1 X141.853 Y172.594 E.01827
G1 X140.309 Y172.705 E.04852
G1 X139.968 Y171.839 E.0292
G1 X137.379 Y154.43 E.55183
G1 X137.447 Y153.918 E.01619
G1 X137.395 Y153.866 E.00231
G1 X137.561 Y152.999 E.02768
G1 X143.803 Y152.548 E.19623
G1 X141.783 Y165.578 E.41342
G1 X141.798 Y166.656 E.0338
G1 X141.863 Y166.77 E.00411
G1 X141.881 Y167.046 F9000
G1 E-4.2 F3600
;WIPE_START
G1 F7200
G1 X142.123 Y166.854 E-.12974
G1 X142.98 Y166.914 E-.40804
G1 X145.295 Y166.06 E-1.17221
;WIPE_END
G1 E-.09 F3600
G1 X142.058 Y153.551 F9000
G1 E6 F2400
;TYPE:Solid infill
;WIDTH:0.423011
G1 F1200
G1 X142.519 Y154.012 E.02061
G1 X142.447 Y154.478 E.01488
G1 X141.715 Y153.746 E.0327
G1 X141.214 Y153.782 E.01589
G1 X142.375 Y154.943 E.05188
G1 X142.302 Y155.408 E.01488
G1 X140.713 Y153.819 E.07106
G1 X140.211 Y153.855 E.01589
G1 X142.23 Y155.874 E.09024
G1 X142.158 Y156.339 E.01488
G1 X139.71 Y153.891 E.10943
G1 X139.209 Y153.927 E.01589
G1 X142.086 Y156.805 E.12861
G1 X142.014 Y157.27 E.01488
G1 X138.707 Y153.963 E.14779
G1 X138.478 Y153.98 E.00726
G1 X138.463 Y154.257 E.00876
G1 X141.942 Y157.735 E.15548
G1 X141.87 Y158.201 E.01488
G1 X138.494 Y154.825 E.15088
G1 X138.588 Y155.456 E.02017
G1 X141.797 Y158.666 E.14346
G1 X141.725 Y159.131 E.01488
G1 X138.682 Y156.088 E.13604
G1 X138.776 Y156.719 E.02017
G1 X141.653 Y159.597 E.12862
G1 X141.581 Y160.062 E.01488
G1 X138.869 Y157.351 E.1212
G1 X138.963 Y157.982 E.02017
G1 X141.509 Y160.528 E.11378
G1 X141.437 Y160.993 E.01488
G1 X139.057 Y158.613 E.10636
G1 X139.151 Y159.245 E.02017
G1 X141.365 Y161.458 E.09894
G1 X141.292 Y161.924 E.01488
G1 X139.245 Y159.876 E.09152
G1 X139.339 Y160.508 E.02017
G1 X141.22 Y162.389 E.08409
G1 X141.148 Y162.855 E.01488
G1 X139.433 Y161.139 E.07667
G1 X139.527 Y161.77 E.02017
G1 X141.076 Y163.32 E.06925
G1 X141.004 Y163.785 E.01488
G1 X139.62 Y162.402 E.06183
G1 X139.714 Y163.033 E.02017
G1 X140.932 Y164.251 E.05441
G1 X140.86 Y164.716 E.01488
G1 X139.808 Y163.665 E.04699
G1 X139.902 Y164.296 E.02017
G1 X140.787 Y165.181 E.03957
G1 X140.75 Y165.422 E.0077
G1 X140.737 Y165.669 E.00781
G1 X139.996 Y164.928 E.03314
G1 X140.09 Y165.559 E.02017
G1 X140.925 Y166.394 E.03733
G1 E-4.2 F3600
;WIPE_START
G1 F7200
G1 X140.09 Y165.559 E-.56112
G1 X139.996 Y164.928 E-.30322
G1 X140.737 Y165.669 E-.49807
